X:1
T:Behold the Bridegroom (Methodius)
T:Behold the Bridegroom (Methodius)
T:Scott Werdebaugh, 2017
T:St. Methodius, 3rd Century
T:Music © 2017 Scott Werdebaugh -  May be freely copied and used for Christian worship or devotions with no alterations. All other rights reserved.
T:Music © 2017 Scott Werdebaugh -  May be freely copied and used for Christian worship or devotions with no alterations. All other rights reserved.
C:Scott Werdebaugh, 2017
Z:Music © 2017 Scott Werdebaugh -  May be freely copied and used for
Z:Christian worship or devotions with no alterations. All other rights reserved.
%%score ( 1 2 ) 3
L:1/8
Q:1/4=104
M:4/4
K:C
V:1 treble 
V:2 treble 
V:3 bass 
V:1
"^With eager anticipation" [EG] | [EG]2 [CF]2 [CA]2 [EG]2 | C2 [B,D]2 [CE]3 [CE] | %3
w: 1.~Be-|hold the Bride- groom!|Hark the cry, The|
w: 2.~The|smiles of earth that|turn to tears, Its|
w: 3.~For|Thee I leave the|world be- hind— Thou|
w: 4.~O|God, ex- alt- ed|on Thy throne, Who|
 [CA]2 [EG]2 [CA]2 [DB]2 | [Ec]2 [DA]2 [DG]4 | [Ec]4 [FA]2 [EG]2 | C2 [B,D]2 [CE]3 [EG] | %7
w: dead a- wak- ing,|rends the sky!|Go, vir- gins,|He is near, Your|
w: emp- ty joys and|fool- ish fears|I leave, for|Thou dost call— Thou|
w: art my bliss, O|Bride- groom kind;|My beau- ty’s|not mine own— ’Tis|
w: dwell’st in pur- i-|ty un- known,|Lo, now we|hum- bly wait, Throw|
 [CA]2 [EG]2 [FA]2 [DB]2 | [Ec]4 z2 z [Ec] | [Ec]2 [DB]2 [CA]2 [EG]2 | [CA]2 [DB]2 [Ec]3 [DB] | %11
w: lamps all burn- ing|clear; He|en- ters where the|ris- ing light A-|
w: art my life, my|all; I|would Thy beau- ty|ev- er see, Then|
w: Thine, O Christ, a-|lone; The|brid- al chamb- er|I would see, In|
w: wide the heav’n- ly|gate, And|with the Bride- groom,|of Thy grace, Give|
 [Ec]2 [DB]2 [CA]2 [EG]2 | [FA]2 [CF]2 [CE]3 [EG] | [FA]2 [DB]2 [Ec]2 [DB]2 | %14
w: sun- der bursts the|gates of night. In|ho- ly garb, with|
w: let me, Bless- èd,|cling to Thee. In|ho- ly garb, with|
w: per- fect hap- pi-|ness to be. In|ho- ly garb, with|
w: us at Thy right|hand a place. In|ho- ly garb, with|
 [Ec]2 [DA]2 [DG]3 [FB] | [Ec]2 [DB]2 [CA]2 [EG]2 | [FA]2 [DB]2 !fermata![Ec]3"^Play 4 times" :| %17
w: lamp a- glow, To|meet the Bride- groom|forth I go.|
w: lamp a- glow, To|meet the Bride- groom|forth I go.|
w: lamp a- glow, To|meet the Bride- groom|forth I go.|
w: lamp a- glow, To|meet the Bride- groom|forth I go.|
V:2
 x | x8 | C2 x6 | x8 | x8 | x8 | C2 x6 | x8 | x8 | x8 | x8 | x8 | x8 | x8 | x8 | x8 | x7 :| %17
V:3
 [C,C] | [C,C]2 [F,A,]2 [F,A,]2 [C,C]2 | [C,G,]2 [G,,G,]2 [C,G,]3 [C,G,] | %3
 [F,A,]2 [C,C]2 [F,A,]2 [G,,G,]2 | [C,G,]2 [^F,A,]2 [G,B,]4 | [C,G,]4 [F,C]2 [C,C]2 | %6
 [C,G,]2 [G,,G,]2 [C,G,]3 [C,C] | [F,A,]2 [C,C]2 [F,C]2 [G,,G,]2 | [C,G,]4 z2 z [C,G,] | %9
 [C,G,]2 [G,,G,]2 [F,A,]2 [C,C]2 | [F,A,]2 [G,,G,]2 [C,G,]3 [G,,G,] | %11
 [C,G,]2 [G,,G,]2 [F,A,]2 [C,C]2 | [F,C]2 [F,A,]2 [C,G,]3 [C,C] | %13
 [F,C]2 [G,,G,]2 [C,G,]2 [G,,G,]2 | [C,G,]2 [D,^F,]2 [G,B,]3 [G,D] | %15
 [C,C]2 [G,,G,]2 [F,A,]2 [C,C]2 | [F,C]2 [G,,G,]2 !fermata![C,G,]3"^Play 4 times" :| %17

